azure-icons/command-1059-Pending.svg

<svg xmlns="http://www.w3.org/2000/svg" viewBox="0 0 16 16"><path d="M5 4V1.7a4.6 4.6 0 00-1.6 1.1 4.7 4.7 0 00-1.3 1.5A5.3 5.3 0 001.3 6 6.9 6.9 0 001 8a6.3 6.3 0 00.3 1.9 4.6 4.6 0 00.7 1.6 4.9 4.9 0 001.1 1.4A4.9 4.9 0 004.5 14l1.6.8L8 15v1a8.1 8.1 0 01-3.1-.6 9 9 0 01-2.6-1.7 9 9 0 01-1.7-2.6A8.1 8.1 0 010 8a7.3 7.3 0 01.4-2.5 7.6 7.6 0 011.1-2.2 9.1 9.1 0 011.7-1.7l.5-.3.4-.3H2V0h4v4zM11 12v2.3a4.6 4.6 0 001.6-1.1 4.7 4.7 0 001.3-1.5 5.3 5.3 0 00.8-1.7 6.9 6.9 0 00.3-2 6.3 6.3 0 00-.3-1.9 4.6 4.6 0 00-.7-1.6 4.9 4.9 0 00-1.1-1.4A4.9 4.9 0 0011.5 2a8 8 0 00-1.6-.8L8 1V0a8.1 8.1 0 013.1.6 9 9 0 012.6 1.7 9 9 0 011.7 2.6A8.1 8.1 0 0116 8a7.3 7.3 0 01-.4 2.5 7.6 7.6 0 01-1.1 2.2 9.1 9.1 0 01-1.7 1.7l-.5.3-.4.3H14v1h-4v-4z"/></svg>

<svg xmlns="http://www.w3.org/2000/svg" viewBox="0 0 16 16"><title>Asset 69</title><path d="M5,4V1.7A4.6,4.6,0,0,0,3.4,2.8,4.7,4.7,0,0,0,2.1,4.3,5.3,5.3,0,0,0,1.3,6,6.9,6.9,0,0,0,1,8a6.3,6.3,0,0,0,.3,1.9A4.6,4.6,0,0,0,2,11.5a4.9,4.9,0,0,0,1.1,1.4A4.9,4.9,0,0,0,4.5,14l1.6.8L8,15v1a8.1,8.1,0,0,1-3.1-.6,9,9,0,0,1-2.6-1.7A9,9,0,0,1,.6,11.1,8.1,8.1,0,0,1,0,8,7.3,7.3,0,0,1,.4,5.5,7.6,7.6,0,0,1,1.5,3.3,9.1,9.1,0,0,1,3.2,1.6l.5-.3L4.1,1H2V0H6V4Z"/><path d="M11,12v2.3a4.6,4.6,0,0,0,1.6-1.1,4.7,4.7,0,0,0,1.3-1.5,5.3,5.3,0,0,0,.8-1.7A6.9,6.9,0,0,0,15,8a6.3,6.3,0,0,0-.3-1.9A4.6,4.6,0,0,0,14,4.5a4.9,4.9,0,0,0-1.1-1.4A4.9,4.9,0,0,0,11.5,2a8,8,0,0,0-1.6-.8L8,1V0a8.1,8.1,0,0,1,3.1.6,9,9,0,0,1,2.6,1.7,9,9,0,0,1,1.7,2.6A8.1,8.1,0,0,1,16,8a7.3,7.3,0,0,1-.4,2.5,7.6,7.6,0,0,1-1.1,2.2,9.1,9.1,0,0,1-1.7,1.7l-.5.3-.4.3H14v1H10V12Z"/></svg>
